X:1
T:In Bethany
T:In Bethany
T:William James Kirkpatrick
T:Frances Jane (Fanny) Crosby, 1884
T:Public Domain Courtesy of the Cyber Hymnal™
C:William James Kirkpatrick
Z:Public Domain
Z:Courtesy of the Cyber Hymnal™
%%score ( 1 2 ) ( 3 4 )
L:1/8
Q:1/4=105
M:3/4
K:A
V:1 treble 
V:2 treble 
V:3 bass 
V:4 bass 
V:1
 E2 | [Ec]>[Ec] [Ec]7/2 [DB]/ | [CA]>[DF] [CA]7/2 [DF]/ | [CE]>[A,C] [CA]2 [Ec]2 | %4
w: 1.~’Twas|good to sit at|Je- sus’ feet In|Beth- a- ny, dear|
w: 2.~His|wel- come voice with|joy they heard In|Beth- a- ny, dear|
w: 3.~When-|e’er He came their|souls were blest In|Beth- a- ny, dear|
w: 4.~O|Sav- ior, make these|hearts of ours Thy|Beth- a- ny, dear|
 [Ec]>[EB] [EB]3 E | [Ec]>[Ec] [Ec]7/2 [EB]/ | [FA]>[DF] [FA]7/2 [DF]/ | [CE]>[A,C] [CA]2 [Ec]2 | %8
w: Beth- a- ny! And|feel His ten- der|love so sweet, In|Beth- a- ny, dear|
w: Beth- a- ny! They|trea- sured up each|pre- cious word, In|Beth- a- ny, dear|
w: Beth- a- ny! His|pre- sence left a|hal- lowed rest, In|Beth- a- ny, dear|
w: Beth- a- ny! And|grant to us the|balm- y showers Of|Beth- a- ny, dear|
 [DB]>[CA] [CA]3 ||"^Refrain" A | [Fd]>[Fd] [Fd]7/2 [=FA]/ | [Ec]>[Ec] [Ec]7/2 [EA]/ | %12
w: Beth- a- ny!||||
w: Beth- a- ny!||||
w: Beth- a- ny!||||
w: Beth- a- ny!||||
 [EB]>[EB] [Ge]7/2 [EB]/ | [Ed]>[Ec] [Ec]7/2 E/ | [^Ec]>[Ec] [Ec]7/2 [EB]/ | %15
w: |||
w: |||
w: |||
w: |||
 [FA]>[DF] !fermata![FA]3 [DF] | [CE]>[A,C] [CA] z [Ec]2 | [DB]>[CA] !fermata![CA]2 |] %18
w: |||
w: |||
w: |||
w: |||
V:2
 E2 | x6 | x6 | x6 | x5 E | x6 | x6 | x6 | x5 || A | x6 | x6 | x6 | x11/2 E/ | x6 | x6 | x6 | x4 |] %18
V:3
 E,2 | [A,,A,]>[A,,A,] [A,,A,]7/2 [A,,E,]/ | [A,,E,]>[A,,A,] [A,,E,]7/2 [A,,A,]/ | %3
w: ~|~ ~ ~ ~|~ ~ ~ ~|
 [A,,A,]>[A,,E,] [A,,E,]2 [A,,A,]2 | [E,A,]>[E,G,] [E,G,]3 [E,G,] | %5
w: ~ ~ ~ ~|~ ~ ~ ~|
 [A,,A,]>[A,,A,] [A,,A,]7/2 [C,A,]/ | [D,A,]>[D,A,] [D,A,]7/2 [D,A,]/ | %7
w: ~ ~ ~ ~|~ ~ ~ ~|
 [E,A,]>[E,A,] [E,A,]2 [E,A,]2 | [E,G,]>E, [A,,E,]3 || A, | [D,A,]>[D,A,] [D,A,]7/2 [D,A,]/ | %11
w: ~ ~ ~ ~|~ ~ ~|If|now our faith and|
 [A,,A,]>[A,,A,] [A,,A,]7/2 [C,A,]/ | [E,G,]>[E,G,] [E,B,]7/2 [E,G,]/ | %13
w: prayers a- gree, Our|grate- ful hearts as|
 [A,,B,]>[A,,A,] [A,,A,]7/2 E,/ | [C,G,]>[C,G,] [C,G,]7/2 [C,G,]/ | %15
w: glad may be As|those that Je- sus|
 [D,F,]>[D,A,] !fermata![D,A,]3 [D,A,] | [E,A,]>[E,A,] [E,A,] z [E,A,]2 | %17
w: came to see In|Beth- a- ny, dear|
 [E,G,]>E, !fermata![A,,E,]2 |] %18
w: Beth- a- ny!|
V:4
 E,2 | x6 | x6 | x6 | x6 | x6 | x6 | x6 | x3/2 E,/ x3 || A, | x6 | x6 | x6 | x11/2 E,/ | x6 | x6 | %16
 x6 | x3/2 E,/ x2 |] %18

